X: 35007
T: Roisin Dubh
R: hornpipe
M: 4/4
K: Gmajor
(d6 Bd|G6 Bd|a6 ga|b6 a2|g8)|(e6 dB|A6 GA|B6 A2|G8)||
(g6 ab|c'6 ba|g6 b2|a6 g2|f2d6)|(d6 Bd|a6 ga|b6 a2|g8)||
(g6 ab|c'6 ba|g6 b2|a6 g2|f2d6)|(d6 Bd|a6 ga|b6 a2|g2e6)||
(d6 Bd|G6 Bd|a6 ga|b6 a2|g8)|(e6 dB|A6 GA|B6 A2|G8)||

